exports/number-of-deaths-from-natural-disasters-de8379b0605ef8c1f8371960cbf1f9cf_v14_850x600.svg

<svg xmlns="http://www.w3.org/2000/svg" version="1.1" style="background-color:#fff;-webkit-font-smoothing:antialiased" width="850" height="600" font-family="'Helvetica Neue',Helvetica,Arial,sans-serif" font-size="18" text-rendering="optimizeLegibility"><g class="ChartTab"><g class="HeaderView"><g opacity=".8" transform="matrix(.27 0 0 .27 778 15)"><a xmlns:xlink="http://www.w3.org/1999/xlink" xlink:href="https://ourworldindata.org" target="_blank"><g><path fill="#1B2543" d="M0 0h211.2v130.1H0z"/><path fill="#E63912" d="M0 112.2h211.2v17.9H0z"/><g><path fill="none" d="M1.2 12.3h210.2v99.2H1.2z"/><path fill="#FFF" d="M37.8 32.2c0 12.7-7.7 19.4-17.1 19.4-9.7 0-16.6-7.5-16.6-18.7 0-11.7 7.3-19.3 17.1-19.3 10.1.1 16.6 7.7 16.6 18.6zm-28.6.6c0 7.9 4.3 14.9 11.8 14.9 7.5 0 11.8-6.9 11.8-15.3 0-7.3-3.8-14.9-11.8-14.9-7.9 0-11.8 7.3-11.8 15.3zM62.7 43.8c0 2.7.1 5.1.2 7.2h-4.3l-.3-4.3h-.1c-1.3 2.1-4 4.9-8.8 4.9-4.2 0-9.1-2.3-9.1-11.6V24.6h4.8v14.6c0 5 1.5 8.4 5.9 8.4 3.2 0 5.5-2.2 6.3-4.4.3-.7.4-1.6.4-2.5V24.6h4.8v19.2zM67.3 32.8c0-3.1-.1-5.8-.2-8.2h4.2l.2 5.2h.2c1.2-3.5 4.1-5.8 7.3-5.8.5 0 .9.1 1.4.2v4.5c-.5-.1-1-.2-1.6-.2-3.4 0-5.8 2.6-6.5 6.2-.1.7-.2 1.4-.2 2.2V51h-4.8V32.8zM95.4 51L86 14.2h5l4.4 18.6c1.1 4.6 2.1 9.2 2.7 12.7h.1c.6-3.7 1.8-8 3-12.8l4.9-18.5h5l4.5 18.7c1 4.4 2 8.7 2.6 12.6h.1c.8-4 1.8-8.1 3-12.7l4.9-18.5h4.9L120.6 51h-5L111 31.9c-1.1-4.7-1.9-8.3-2.4-12h-.1c-.7 3.7-1.5 7.3-2.8 12L100.4 51h-5zM154.9 37.6c0 9.8-6.8 14-13.2 14-7.2 0-12.7-5.2-12.7-13.6 0-8.8 5.8-14 13.1-14 7.7 0 12.8 5.5 12.8 13.6zm-21 .3c0 5.8 3.3 10.1 8 10.1 4.6 0 8-4.3 8-10.3 0-4.5-2.2-10.1-7.9-10.1s-8.1 5.2-8.1 10.3zM158.2 32.8c0-3.1-.1-5.8-.2-8.2h4.2l.2 5.2h.2c1.2-3.5 4.1-5.8 7.3-5.8.5 0 .9.1 1.4.2v4.5c-.5-.1-1-.2-1.6-.2-3.4 0-5.8 2.6-6.5 6.2-.1.7-.2 1.4-.2 2.2V51h-4.8V32.8zM173.5 12.3h4.8V51h-4.8V12.3zM206.5 12.3v31.9c0 2.3.1 5 .2 6.8h-4.3l-.2-4.6h-.2c-1.5 2.9-4.7 5.2-9 5.2-6.4 0-11.3-5.4-11.3-13.4-.1-8.8 5.4-14.2 11.9-14.2 4 0 6.8 1.9 8 4h.1V12.3h4.8zm-4.8 23.1c0-.6-.1-1.4-.2-2a7 7 0 00-6.9-5.6c-5 0-7.9 4.4-7.9 10.2 0 5.3 2.6 9.8 7.8 9.8 3.2 0 6.2-2.1 7.1-5.7.2-.7.2-1.3.2-2.1v-4.6zM42.8 64c.1 1.6-1.1 2.9-3.1 2.9-1.7 0-2.9-1.3-2.9-2.9 0-1.7 1.3-3 3-3 1.9 0 3 1.3 3 3zm-5.4 33.8V71.4h4.8v26.4h-4.8zM47.5 78.6c0-2.7-.1-5-.2-7.1h4.3l.3 4.4h.1c1.3-2.5 4.4-5 8.8-5 3.7 0 9.4 2.2 9.4 11.2v15.8h-4.8V82.6c0-4.3-1.6-7.8-6.1-7.8-3.2 0-5.6 2.2-6.5 4.9-.2.6-.3 1.4-.3 2.2v15.9h-4.8V78.6zM84 61.6c2.9-.4 6.3-.8 10.1-.8 6.8 0 11.7 1.6 14.9 4.6 3.3 3 5.2 7.3 5.2 13.2 0 6-1.9 10.9-5.3 14.3-3.4 3.4-9.1 5.3-16.3 5.3-3.4 0-6.2-.2-8.6-.4V61.6zm4.8 32.5c1.2.2 3 .3 4.8.3 10.2 0 15.7-5.7 15.7-15.6.1-8.7-4.9-14.2-14.9-14.2-2.5 0-4.3.2-5.6.5v29zM132.1 97.8l-.4-3.3h-.2a9.79 9.79 0 01-8.1 3.9c-5.4 0-8.1-3.8-8.1-7.6 0-6.4 5.7-9.9 15.9-9.8v-.5c0-2.2-.6-6.1-6-6.1-2.5 0-5 .8-6.9 2l-1.1-3.2c2.2-1.4 5.4-2.3 8.7-2.3 8.1 0 10.1 5.5 10.1 10.8v9.9c0 2.3.1 4.5.4 6.3h-4.3zm-.7-13.4c-5.3-.1-11.2.8-11.2 5.9 0 3.1 2.1 4.6 4.5 4.6 3.4 0 5.6-2.2 6.4-4.4.2-.5.3-1 .3-1.5v-4.6zM146.6 63.9v7.6h6.9v3.7h-6.9v14.2c0 3.3.9 5.1 3.6 5.1 1.3 0 2.2-.2 2.8-.3l.2 3.6c-.9.4-2.4.7-4.3.7-2.2 0-4-.7-5.2-2-1.4-1.4-1.9-3.8-1.9-6.9V75.1h-4.1v-3.7h4.1v-6.3l4.8-1.2zM171.4 97.8l-.4-3.3h-.2a9.79 9.79 0 01-8.1 3.9c-5.4 0-8.1-3.8-8.1-7.6 0-6.4 5.7-9.9 15.9-9.8v-.5c0-2.2-.6-6.1-6-6.1-2.5 0-5 .8-6.9 2l-1.1-3.2c2.2-1.4 5.4-2.3 8.7-2.3 8.1 0 10.1 5.5 10.1 10.8v9.9c0 2.3.1 4.5.4 6.3h-4.3zm-.7-13.4c-5.3-.1-11.2.8-11.2 5.9 0 3.1 2.1 4.6 4.5 4.6 3.4 0 5.6-2.2 6.4-4.4.2-.5.3-1 .3-1.5v-4.6z"/></g></g></a></g><a href="https://ourworldindata.org/grapher/number-of-deaths-from-natural-disasters?country=Wildfire" target="_blank"><text font-size="25.2" x="15" y="35.2" fill="#555"><tspan x="15" y="35.16">Global deaths from natural disasters, Wildfire</tspan></text></a><text font-size="14.4" x="15" y="53.7" fill="#666"><tspan x="15" y="53.72">Absolute number of global deaths per year as a result of natural disasters. &quot;All natural disasters&quot; includes those from</tspan><tspan x="15" y="69.56">drought, floods, extreme weather, extreme temperature, landslides, dry mass movements, wildfires, volcanic activity</tspan><tspan x="15" y="85.4">and earthquakes.</tspan></text></g><g class="LineChart"><defs><clipPath id="a"><path d="M50.82 0h830v868.6h-830z"/></clipPath></defs><g class="AxisBoxView"><g class="HorizontalAxis" fill="#666" text-anchor="middle" font-size="16.2"><text x="60.8" y="541.9">1911</text><text x="119.2" y="541.9">1920</text><text x="249" y="541.9">1940</text><text x="378.7" y="541.9">1960</text><text x="508.5" y="541.9">1980</text><text x="638.3" y="541.9">2000</text><text x="755" y="541.9">2018</text></g><g class="VerticalAxis" fill="#666" dominant-baseline="middle" text-anchor="end" font-size="16.2"><text x="55.82" y="520.7">0</text><text x="55.82" y="438.1">200</text><text x="55.82" y="355.5">400</text><text x="55.82" y="272.8">600</text><text x="55.82" y="190.2">800</text><text x="55.82" y="107.6">1,000</text></g><g class="AxisGridLines"><path stroke="#ccc" d="M60.82 520.7h694.22"/><path stroke="#ddd" stroke-dasharray="3,2" d="M60.82 438.1h694.22M60.82 355.5h694.22M60.82 272.8h694.22M60.82 190.2h694.22M60.82 107.6h694.22"/></g></g><g clip-path="url(#a)"><g class="HeightedLegend clickable"><g class="legendMark"><text font-size="13.5" x="760" y="422.8" fill="#3360a9"><tspan x="760.04" y="422.75">Wildfire</tspan></text></g></g><g class="Lines"><g class="key-Wildfire_0"><path stroke="#3360a9" stroke-linecap="round" d="M61 491l45-383 26 395 46-7 65-5 32-40 32 37 46 28 65-6 6-15 7 21 58 4h7l19-3 7 3 6-43 7 37 6-14 6 12 7-70 13 78 13-36 6-14 7 50 6-34 7 23 6-7 7-91 6 48 7 33 6 9 7 6 6 11 7-17 6 14 7-13 6 13 7-55 6 25 7-43 6 10 7 65 6-5 7-6 6 8 7-21 6 12 7-53 6-33" fill="none" stroke-width="1.5"/><g fill="#3360a9"><circle cx="61" cy="491" r="2"/><circle cx="106" cy="108" r="2"/><circle cx="132" cy="503" r="2"/><circle cx="178" cy="496" r="2"/><circle cx="243" cy="491" r="2"/><circle cx="275" cy="451" r="2"/><circle cx="307" cy="488" r="2"/><circle cx="353" cy="516" r="2"/><circle cx="418" cy="510" r="2"/><circle cx="424" cy="495" r="2"/><circle cx="431" cy="516" r="2"/><circle cx="489" cy="520" r="2"/><circle cx="496" cy="520" r="2"/><circle cx="515" cy="517" r="2"/><circle cx="522" cy="520" r="2"/><circle cx="528" cy="477" r="2"/><circle cx="535" cy="514" r="2"/><circle cx="541" cy="500" r="2"/><circle cx="547" cy="512" r="2"/><circle cx="554" cy="442" r="2"/><circle cx="567" cy="520" r="2"/><circle cx="580" cy="484" r="2"/><circle cx="586" cy="470" r="2"/><circle cx="593" cy="520" r="2"/><circle cx="599" cy="486" r="2"/><circle cx="606" cy="509" r="2"/><circle cx="612" cy="502" r="2"/><circle cx="619" cy="411" r="2"/><circle cx="625" cy="459" r="2"/><circle cx="632" cy="492" r="2"/><circle cx="638" cy="501" r="2"/><circle cx="645" cy="507" r="2"/><circle cx="651" cy="518" r="2"/><circle cx="658" cy="501" r="2"/><circle cx="664" cy="515" r="2"/><circle cx="671" cy="502" r="2"/><circle cx="677" cy="515" r="2"/><circle cx="684" cy="460" r="2"/><circle cx="690" cy="485" r="2"/><circle cx="697" cy="442" r="2"/><circle cx="703" cy="452" r="2"/><circle cx="710" cy="517" r="2"/><circle cx="716" cy="512" r="2"/><circle cx="723" cy="506" r="2"/><circle cx="729" cy="514" r="2"/><circle cx="736" cy="493" r="2"/><circle cx="742" cy="505" r="2"/><circle cx="749" cy="452" r="2"/><circle cx="755" cy="419" r="2"/></g></g></g></g></g><g class="SourcesFooter" fill="#777"><g class="clickable" fill="#777"><text font-size="12.6" x="15" y="567"><tspan x="15" y="566.98">Source: EMDAT: OFDA/CRED International Disaster Database, Université catholique de Louvain – Brussels – Belgium</tspan></text></g><text font-size="12.6" x="15" y="582.5"><tspan x="15" y="582.48"><a target="_blank" href="https://ourworldindata.org/natural-disasters/" fill="#777">OurWorldInData.org/natural-disasters/</a> • <a class="cclogo" href="http://creativecommons.org/licenses/by-sa/4.0/deed.en_US" target="_blank" fill="#777">CC BY-SA</a></tspan></text></g></g></svg>

<svg xmlns="http://www.w3.org/2000/svg" version="1.1" style="font-family:&#x27;Helvetica Neue&#x27;, Helvetica, Arial, sans-serif;font-size:18px;background-color:white;text-rendering:optimizeLegibility;-webkit-font-smoothing:antialiased" width="850" height="600"><g class="ChartTab"><g class="HeaderView"><g opacity="0.8" transform="translate(778, 15) scale(0.27)"><a xmlns:xlink="http://www.w3.org/1999/xlink" xlink:href="https://ourworldindata.org" target="_blank"><g><rect x="0" y="0" fill="#1B2543" width="211.2" height="130.1"/><rect x="0" y="112.2" fill="#E63912" width="211.2" height="17.9"/><g><rect x="1.2" y="12.3" fill="none" width="210.2" height="99.2"/><path fill="#FFFFFF" d="M37.8,32.2c0,12.7-7.7,19.4-17.1,19.4c-9.7,0-16.6-7.5-16.6-18.7c0-11.7,7.3-19.3,17.1-19.3 C31.3,13.7,37.8,21.3,37.8,32.2z M9.2,32.8c0,7.9,4.3,14.9,11.8,14.9c7.5,0,11.8-6.9,11.8-15.3c0-7.3-3.8-14.9-11.8-14.9 C13.1,17.5,9.2,24.8,9.2,32.8z"/><path fill="#FFFFFF" d="M62.7,43.8c0,2.7,0.1,5.1,0.2,7.2h-4.3l-0.3-4.3h-0.1c-1.3,2.1-4,4.9-8.8,4.9c-4.2,0-9.1-2.3-9.1-11.6 V24.6h4.8v14.6c0,5,1.5,8.4,5.9,8.4c3.2,0,5.5-2.2,6.3-4.4c0.3-0.7,0.4-1.6,0.4-2.5V24.6h4.8V43.8z"/><path fill="#FFFFFF" d="M67.3,32.8c0-3.1-0.1-5.8-0.2-8.2h4.2l0.2,5.2h0.2c1.2-3.5,4.1-5.8,7.3-5.8c0.5,0,0.9,0.1,1.4,0.2v4.5 c-0.5-0.1-1-0.2-1.6-0.2c-3.4,0-5.8,2.6-6.5,6.2c-0.1,0.7-0.2,1.4-0.2,2.2V51h-4.8V32.8z"/><path fill="#FFFFFF" d="M95.4,51l-9.4-36.8h5l4.4,18.6c1.1,4.6,2.1,9.2,2.7,12.7h0.1c0.6-3.7,1.8-8,3-12.8l4.9-18.5h5l4.5,18.7 c1,4.4,2,8.7,2.6,12.6h0.1c0.8-4,1.8-8.1,3-12.7l4.9-18.5h4.9L120.6,51h-5L111,31.9c-1.1-4.7-1.9-8.3-2.4-12h-0.1 c-0.7,3.7-1.5,7.3-2.8,12L100.4,51H95.4z"/><path fill="#FFFFFF" d="M154.9,37.6c0,9.8-6.8,14-13.2,14c-7.2,0-12.7-5.2-12.7-13.6c0-8.8,5.8-14,13.1-14 C149.8,24,154.9,29.5,154.9,37.6z M133.9,37.9c0,5.8,3.3,10.1,8,10.1c4.6,0,8-4.3,8-10.3c0-4.5-2.2-10.1-7.9-10.1 C136.3,27.6,133.9,32.8,133.9,37.9z"/><path fill="#FFFFFF" d="M158.2,32.8c0-3.1-0.1-5.8-0.2-8.2h4.2l0.2,5.2h0.2c1.2-3.5,4.1-5.8,7.3-5.8c0.5,0,0.9,0.1,1.4,0.2v4.5 c-0.5-0.1-1-0.2-1.6-0.2c-3.4,0-5.8,2.6-6.5,6.2c-0.1,0.7-0.2,1.4-0.2,2.2V51h-4.8V32.8z"/><path fill="#FFFFFF" d="M173.5,12.3h4.8V51h-4.8V12.3z"/><path fill="#FFFFFF" d="M206.5,12.3v31.9c0,2.3,0.1,5,0.2,6.8h-4.3l-0.2-4.6H202c-1.5,2.9-4.7,5.2-9,5.2 c-6.4,0-11.3-5.4-11.3-13.4c-0.1-8.8,5.4-14.2,11.9-14.2c4,0,6.8,1.9,8,4h0.1V12.3H206.5z M201.7,35.4c0-0.6-0.1-1.4-0.2-2 c-0.7-3.1-3.3-5.6-6.9-5.6c-5,0-7.9,4.4-7.9,10.2c0,5.3,2.6,9.8,7.8,9.8c3.2,0,6.2-2.1,7.1-5.7c0.2-0.7,0.2-1.3,0.2-2.1V35.4z"/><path fill="#FFFFFF" d="M42.8,64c0.1,1.6-1.1,2.9-3.1,2.9c-1.7,0-2.9-1.3-2.9-2.9c0-1.7,1.3-3,3-3C41.7,61,42.8,62.3,42.8,64z M37.4,97.8V71.4h4.8v26.4H37.4z"/><path fill="#FFFFFF" d="M47.5,78.6c0-2.7-0.1-5-0.2-7.1h4.3l0.3,4.4h0.1c1.3-2.5,4.4-5,8.8-5c3.7,0,9.4,2.2,9.4,11.2v15.8h-4.8 V82.6c0-4.3-1.6-7.8-6.1-7.8c-3.2,0-5.6,2.2-6.5,4.9c-0.2,0.6-0.3,1.4-0.3,2.2v15.9h-4.8V78.6z"/><path fill="#FFFFFF" d="M84,61.6c2.9-0.4,6.3-0.8,10.1-0.8c6.8,0,11.7,1.6,14.9,4.6c3.3,3,5.2,7.3,5.2,13.2c0,6-1.9,10.9-5.3,14.3 c-3.4,3.4-9.1,5.3-16.3,5.3c-3.4,0-6.2-0.2-8.6-0.4V61.6z M88.8,94.1c1.2,0.2,3,0.3,4.8,0.3c10.2,0,15.7-5.7,15.7-15.6 c0.1-8.7-4.9-14.2-14.9-14.2c-2.5,0-4.3,0.2-5.6,0.5V94.1z"/><path fill="#FFFFFF" d="M132.1,97.8l-0.4-3.3h-0.2c-1.5,2.1-4.3,3.9-8.1,3.9c-5.4,0-8.1-3.8-8.1-7.6c0-6.4,5.7-9.9,15.9-9.8v-0.5 c0-2.2-0.6-6.1-6-6.1c-2.5,0-5,0.8-6.9,2l-1.1-3.2c2.2-1.4,5.4-2.3,8.7-2.3c8.1,0,10.1,5.5,10.1,10.8v9.9c0,2.3,0.1,4.5,0.4,6.3 H132.1z M131.4,84.4c-5.3-0.1-11.2,0.8-11.2,5.9c0,3.1,2.1,4.6,4.5,4.6c3.4,0,5.6-2.2,6.4-4.4c0.2-0.5,0.3-1,0.3-1.5V84.4z"/><path fill="#FFFFFF" d="M146.6,63.9v7.6h6.9v3.7h-6.9v14.2c0,3.3,0.9,5.1,3.6,5.1c1.3,0,2.2-0.2,2.8-0.3l0.2,3.6 c-0.9,0.4-2.4,0.7-4.3,0.7c-2.2,0-4-0.7-5.2-2c-1.4-1.4-1.9-3.8-1.9-6.9V75.1h-4.1v-3.7h4.1v-6.3L146.6,63.9z"/><path fill="#FFFFFF" d="M171.4,97.8l-0.4-3.3h-0.2c-1.5,2.1-4.3,3.9-8.1,3.9c-5.4,0-8.1-3.8-8.1-7.6c0-6.4,5.7-9.9,15.9-9.8v-0.5 c0-2.2-0.6-6.1-6-6.1c-2.5,0-5,0.8-6.9,2l-1.1-3.2c2.2-1.4,5.4-2.3,8.7-2.3c8.1,0,10.1,5.5,10.1,10.8v9.9c0,2.3,0.1,4.5,0.4,6.3 H171.4z M170.7,84.4c-5.3-0.1-11.2,0.8-11.2,5.9c0,3.1,2.1,4.6,4.5,4.6c3.4,0,5.6-2.2,6.4-4.4c0.2-0.5,0.3-1,0.3-1.5V84.4z"/></g></g></a></g><a href="https://ourworldindata.org/grapher/number-of-deaths-from-natural-disasters?country=Wildfire" target="_blank"><text font-size="25.20" x="15.0" y="35.2" fill="#555"><tspan x="15" y="35.160000000000004">Global deaths from natural disasters, Wildfire</tspan></text></a><text font-size="14.40" x="15.0" y="53.7" fill="#666"><tspan x="15" y="53.72">Absolute number of global deaths per year as a result of natural disasters. &quot;All natural disasters&quot; includes those from</tspan><tspan x="15" y="69.56">drought, floods, extreme weather, extreme temperature, landslides, dry mass movements, wildfires, volcanic activity</tspan><tspan x="15" y="85.4">and earthquakes.</tspan></text></g><g class="LineChart"><defs><clipPath id="boundsClip-1"><rect x="50.824" y="0" width="830" height="868.5999999999999"></rect></clipPath></defs><g class="AxisBoxView"><g class="HorizontalAxis"><text x="60.8" y="541.9" fill="#666" text-anchor="middle" font-size="16.2">1911</text><text x="119.2" y="541.9" fill="#666" text-anchor="middle" font-size="16.2">1920</text><text x="249" y="541.9" fill="#666" text-anchor="middle" font-size="16.2">1940</text><text x="378.7" y="541.9" fill="#666" text-anchor="middle" font-size="16.2">1960</text><text x="508.5" y="541.9" fill="#666" text-anchor="middle" font-size="16.2">1980</text><text x="638.3" y="541.9" fill="#666" text-anchor="middle" font-size="16.2">2000</text><text x="755" y="541.9" fill="#666" text-anchor="middle" font-size="16.2">2018</text></g><g class="VerticalAxis"><text x="55.82" y="520.7" fill="#666" dominant-baseline="middle" text-anchor="end" font-size="16.2">0</text><text x="55.82" y="438.1" fill="#666" dominant-baseline="middle" text-anchor="end" font-size="16.2">200</text><text x="55.82" y="355.5" fill="#666" dominant-baseline="middle" text-anchor="end" font-size="16.2">400</text><text x="55.82" y="272.8" fill="#666" dominant-baseline="middle" text-anchor="end" font-size="16.2">600</text><text x="55.82" y="190.2" fill="#666" dominant-baseline="middle" text-anchor="end" font-size="16.2">800</text><text x="55.82" y="107.6" fill="#666" dominant-baseline="middle" text-anchor="end" font-size="16.2">1,000</text></g><g class="AxisGridLines"><line x1="60.82" y1="520.7" x2="755.04" y2="520.7" stroke="#ccc"></line><line x1="60.82" y1="438.1" x2="755.04" y2="438.1" stroke="#ddd" stroke-dasharray="3,2"></line><line x1="60.82" y1="355.5" x2="755.04" y2="355.5" stroke="#ddd" stroke-dasharray="3,2"></line><line x1="60.82" y1="272.8" x2="755.04" y2="272.8" stroke="#ddd" stroke-dasharray="3,2"></line><line x1="60.82" y1="190.2" x2="755.04" y2="190.2" stroke="#ddd" stroke-dasharray="3,2"></line><line x1="60.82" y1="107.6" x2="755.04" y2="107.6" stroke="#ddd" stroke-dasharray="3,2"></line></g></g><g clip-path="url(#boundsClip-1)"><g class="HeightedLegend clickable"><g class="legendMark"><rect x="755.045" y="411.95" width="79.95500000000001" height="13.5" fill="#fff" opacity="0"></rect><text font-size="13.50" x="760.0" y="422.8" fill="#3360a9"><tspan x="760.045" y="422.75">Wildfire</tspan></text></g></g><g class="Lines"><rect x="61" y="108" width="694" height="413" fill="rgba(255,255,255,0)" opacity="0"></rect><g class="key-Wildfire_0"><path stroke="#3360a9" stroke-linecap="round" d="M61 491L106 108L132 503L178 496L243 491L275 451L307 488L353 516L418 510L424 495L431 516L489 520L496 520L515 517L522 520L528 477L535 514L541 500L547 512L554 442L567 520L580 484L586 470L593 520L599 486L606 509L612 502L619 411L625 459L632 492L638 501L645 507L651 518L658 501L664 515L671 502L677 515L684 460L690 485L697 442L703 452L710 517L716 512L723 506L729 514L736 493L742 505L749 452L755 419" fill="none" stroke-width="1.5"></path><g fill="#3360a9"><circle cx="61" cy="491" r="2"></circle><circle cx="106" cy="108" r="2"></circle><circle cx="132" cy="503" r="2"></circle><circle cx="178" cy="496" r="2"></circle><circle cx="243" cy="491" r="2"></circle><circle cx="275" cy="451" r="2"></circle><circle cx="307" cy="488" r="2"></circle><circle cx="353" cy="516" r="2"></circle><circle cx="418" cy="510" r="2"></circle><circle cx="424" cy="495" r="2"></circle><circle cx="431" cy="516" r="2"></circle><circle cx="489" cy="520" r="2"></circle><circle cx="496" cy="520" r="2"></circle><circle cx="515" cy="517" r="2"></circle><circle cx="522" cy="520" r="2"></circle><circle cx="528" cy="477" r="2"></circle><circle cx="535" cy="514" r="2"></circle><circle cx="541" cy="500" r="2"></circle><circle cx="547" cy="512" r="2"></circle><circle cx="554" cy="442" r="2"></circle><circle cx="567" cy="520" r="2"></circle><circle cx="580" cy="484" r="2"></circle><circle cx="586" cy="470" r="2"></circle><circle cx="593" cy="520" r="2"></circle><circle cx="599" cy="486" r="2"></circle><circle cx="606" cy="509" r="2"></circle><circle cx="612" cy="502" r="2"></circle><circle cx="619" cy="411" r="2"></circle><circle cx="625" cy="459" r="2"></circle><circle cx="632" cy="492" r="2"></circle><circle cx="638" cy="501" r="2"></circle><circle cx="645" cy="507" r="2"></circle><circle cx="651" cy="518" r="2"></circle><circle cx="658" cy="501" r="2"></circle><circle cx="664" cy="515" r="2"></circle><circle cx="671" cy="502" r="2"></circle><circle cx="677" cy="515" r="2"></circle><circle cx="684" cy="460" r="2"></circle><circle cx="690" cy="485" r="2"></circle><circle cx="697" cy="442" r="2"></circle><circle cx="703" cy="452" r="2"></circle><circle cx="710" cy="517" r="2"></circle><circle cx="716" cy="512" r="2"></circle><circle cx="723" cy="506" r="2"></circle><circle cx="729" cy="514" r="2"></circle><circle cx="736" cy="493" r="2"></circle><circle cx="742" cy="505" r="2"></circle><circle cx="749" cy="452" r="2"></circle><circle cx="755" cy="419" r="2"></circle></g></g></g></g></g><g class="SourcesFooter" style="fill:#777"><g class="clickable" style="fill:#777"><text font-size="12.60" x="15.0" y="567.0"><tspan x="15" y="566.98">Source: EMDAT: OFDA/CRED International Disaster Database, Université catholique de Louvain – Brussels – Belgium</tspan></text></g><text font-size="12.60" x="15.0" y="582.5"><tspan x="15" y="582.48"><a target='_blank' style='fill: #777;' href='https://ourworldindata.org/natural-disasters/'>OurWorldInData.org/natural-disasters/</a> • <a style="fill: #777;" class="cclogo" href="http://creativecommons.org/licenses/by-sa/4.0/deed.en_US" target="_blank">CC BY-SA</a></tspan></text></g></g></svg>
